static/logos/helpScout-glyph-color.svg

<svg width="50" height="60" viewBox="0 0 50 60" fill="none" xmlns="http://www.w3.org/2000/svg">
<g clip-path="url(#clip0_1_2466)">
<path d="M4.05312 35.1499L21.4031 17.7999C23.6531 15.5999 25.0531 12.4999 25.0531 9.09995C25.0531 5.74995 23.7031 2.64995 21.5031 0.449951L4.15312 17.7999C1.90312 19.9999 0.503123 23.1 0.503123 26.5C0.503123 29.9 1.85312 32.9499 4.05312 35.1499ZM46.0531 25L28.7031 42.3499C26.4531 44.5499 25.0531 47.6499 25.0531 51.05C25.0531 54.4 26.4031 57.5 28.6031 59.7L45.9531 42.3499C48.2031 40.1499 49.6031 37.0499 49.6031 33.6499C49.6031 30.2499 48.2531 27.2 46.0531 25ZM45.9531 17.85C48.2031 15.65 49.6031 12.55 49.6031 9.14995C49.6031 5.79995 48.2531 2.69996 46.0531 0.499954L4.10313 42.3999C1.85313 44.6499 0.453125 47.7 0.453125 51.15C0.453125 54.5 1.80312 57.6 4.00312 59.8L45.9531 17.85Z" fill="#1087D8"/>
</g>
<defs>
<clipPath id="clip0_1_2466">
<rect width="50" height="60" fill="white"/>
</clipPath>
</defs>
</svg>

<svg xmlns="http://www.w3.org/2000/svg" width="53.333" height="64" fill="none" viewBox="0 0 50 60"><g clip-path="url(#a)"><path fill="#1087D8" d="m4.053 35.15 17.35-17.35c2.25-2.2 3.65-5.3 3.65-8.7 0-3.35-1.35-6.45-3.55-8.65L4.153 17.8c-2.25 2.2-3.65 5.3-3.65 8.7 0 3.4 1.35 6.45 3.55 8.65Zm42-10.15-17.35 17.35c-2.25 2.2-3.65 5.3-3.65 8.7 0 3.35 1.35 6.45 3.55 8.65l17.35-17.35c2.25-2.2 3.65-5.3 3.65-8.7 0-3.4-1.35-6.45-3.55-8.65Zm-.1-7.15c2.25-2.2 3.65-5.3 3.65-8.7 0-3.35-1.35-6.45-3.55-8.65L4.103 42.4c-2.25 2.25-3.65 5.3-3.65 8.75 0 3.35 1.35 6.45 3.55 8.65l41.95-41.95Z"/></g><defs><clipPath id="a"><path fill="#fff" d="M0 0h50v60H0z"/></clipPath></defs></svg>
